X:639
T: Polska # 639
M:3/4
L:1/16
K:D
Q:110
|:{EF} E2DE A,4 C2E2 | E2FE D4 F2A2 | A2Bc (d2f2) e2d2 | (cd)cB ABAG (FDF2)
|{EF} E2DE A,4 C2E2 | E2FE D4 F2A2 | A2Bc (d2f2) e2d2 | cec2 d8 :|
|:[K: Dmin] {fg}(fefg) a4 f2a2 | g2e2 c2e2 g2e2 | {fg}(fefg) a4 f2a2
|g2e2 c2e2 g2e2 | f2gf e2fe d2ed | ^c2Ac d8 :|

